X: 093
M: 12/8
L: 1/8
K: F
e | (Tfef) gec Bdf cAF | BdB AcA dBG G2e | (Tfef) gec Bdf cAF | BAB GcB AFF F2 ||
e | (Tfef) gec Bdf cAF | BdB AcA dBG G2e | faf gbg afd cBA | BAB Gge fFF F2 |]


